pics/icons/16x16/actions/log-out.svg

<?xml version="1.0" encoding="UTF-8" standalone="no"?>
<!-- Created with Inkscape (http://www.inkscape.org/) -->
<svg
   xmlns:dc="http://purl.org/dc/elements/1.1/"
   xmlns:cc="http://creativecommons.org/ns#"
   xmlns:rdf="http://www.w3.org/1999/02/22-rdf-syntax-ns#"
   xmlns:svg="http://www.w3.org/2000/svg"
   xmlns="http://www.w3.org/2000/svg"
   xmlns:xlink="http://www.w3.org/1999/xlink"
   xmlns:sodipodi="http://sodipodi.sourceforge.net/DTD/sodipodi-0.dtd"
   xmlns:inkscape="http://www.inkscape.org/namespaces/inkscape"
   inkscape:export-ydpi="90.000000"
   inkscape:export-xdpi="90.000000"
   inkscape:export-filename="/home/jimmac/Desktop/wi-fi.png"
   width="16"
   height="16"
   id="svg11300"
   sodipodi:version="0.32"
   inkscape:version="0.46"
   sodipodi:docbase="/home/jimmac/src/cvs/tango-icon-theme/22x22/actions"
   sodipodi:docname="system-log-out.svg"
   inkscape:output_extension="org.inkscape.output.svg.inkscape"
   version="1.0"
   sodipodi:modified="true">
  <defs
     id="defs3">
    <inkscape:perspective
       sodipodi:type="inkscape:persp3d"
       inkscape:vp_x="0 : 8 : 1"
       inkscape:vp_y="0 : 1000 : 0"
       inkscape:vp_z="16 : 8 : 1"
       inkscape:persp3d-origin="8 : 5.3333333 : 1"
       id="perspective64" />
    <linearGradient
       inkscape:collect="always"
       id="linearGradient6467">
      <stop
         style="stop-color:#babdb6;stop-opacity:1;"
         offset="0"
         id="stop6469" />
      <stop
         style="stop-color:#babdb6;stop-opacity:0;"
         offset="1"
         id="stop6471" />
    </linearGradient>
    <linearGradient
       inkscape:collect="always"
       id="linearGradient6365">
      <stop
         style="stop-color:#ffffff;stop-opacity:1;"
         offset="0"
         id="stop6367" />
      <stop
         style="stop-color:#ffffff;stop-opacity:0;"
         offset="1"
         id="stop6369" />
    </linearGradient>
    <linearGradient
       id="linearGradient6347">
      <stop
         style="stop-color:#4e9a06;stop-opacity:1;"
         offset="0"
         id="stop6349" />
      <stop
         style="stop-color:#2d5903;stop-opacity:1;"
         offset="1"
         id="stop6351" />
    </linearGradient>
    <linearGradient
       id="linearGradient9896">
      <stop
         id="stop9898"
         offset="0"
         style="stop-color:#cecece;stop-opacity:1;" />
      <stop
         id="stop9900"
         offset="1.0000000"
         style="stop-color:#9e9e9e;stop-opacity:1.0000000;" />
    </linearGradient>
    <linearGradient
       id="linearGradient9888"
       inkscape:collect="always">
      <stop
         id="stop9890"
         offset="0"
         style="stop-color:#ffffff;stop-opacity:1;" />
      <stop
         id="stop9892"
         offset="1"
         style="stop-color:#ffffff;stop-opacity:0;" />
    </linearGradient>
    <linearGradient
       id="linearGradient9880"
       inkscape:collect="always">
      <stop
         id="stop9882"
         offset="0"
         style="stop-color:#525252;stop-opacity:1;" />
      <stop
         id="stop9884"
         offset="1"
         style="stop-color:#525252;stop-opacity:0;" />
    </linearGradient>
    <linearGradient
       id="linearGradient9868">
      <stop
         style="stop-color:#4e4e4e;stop-opacity:1.0000000;"
         offset="0.0000000"
         id="stop9870" />
      <stop
         style="stop-color:#616161;stop-opacity:0.0000000;"
         offset="1.0000000"
         id="stop9872" />
    </linearGradient>
    <linearGradient
       id="linearGradient9854">
      <stop
         id="stop9856"
         offset="0.0000000"
         style="stop-color:#4e4e4e;stop-opacity:1.0000000;" />
      <stop
         id="stop9858"
         offset="1.0000000"
         style="stop-color:#ababab;stop-opacity:1.0000000;" />
    </linearGradient>
    <linearGradient
       id="linearGradient9830">
      <stop
         id="stop9832"
         offset="0.0000000"
         style="stop-color:#505050;stop-opacity:1.0000000;" />
      <stop
         id="stop9834"
         offset="1.0000000"
         style="stop-color:#181818;stop-opacity:1.0000000;" />
    </linearGradient>
    <linearGradient
       inkscape:collect="always"
       id="linearGradient8662">
      <stop
         style="stop-color:#000000;stop-opacity:1;"
         offset="0"
         id="stop8664" />
      <stop
         style="stop-color:#000000;stop-opacity:0;"
         offset="1"
         id="stop8666" />
    </linearGradient>
    <linearGradient
       inkscape:collect="always"
       id="linearGradient8650">
      <stop
         style="stop-color:#ffffff;stop-opacity:1;"
         offset="0"
         id="stop8652" />
      <stop
         style="stop-color:#ffffff;stop-opacity:0;"
         offset="1"
         id="stop8654" />
    </linearGradient>
    <linearGradient
       gradientUnits="userSpaceOnUse"
       y2="27.759069"
       x2="18.031221"
       y1="19.804117"
       x1="46.845825"
       id="linearGradient9864"
       xlink:href="#linearGradient9854"
       inkscape:collect="always"
       gradientTransform="matrix(0.3502365,0,0,0.354829,-3.9029009,-8.3834021e-2)" />
    <radialGradient
       gradientUnits="userSpaceOnUse"
       gradientTransform="matrix(0.9006895,0,0,0.4973205,-17.17764,-3.4434456)"
       r="9.7227182"
       fy="7.139607"
       fx="27.883883"
       cy="7.139607"
       cx="27.883883"
       id="radialGradient9876"
       xlink:href="#linearGradient9868"
       inkscape:collect="always" />
    <linearGradient
       gradientTransform="matrix(0.7964847,0,0,0.7951099,-18.292362,-11.332155)"
       gradientUnits="userSpaceOnUse"
       y2="24.764584"
       x2="34.007416"
       y1="19.107729"
       x1="31.852951"
       id="linearGradient9886"
       xlink:href="#linearGradient9880"
       inkscape:collect="always" />
    <linearGradient
       gradientUnits="userSpaceOnUse"
       y2="18.064039"
       x2="33.710651"
       y1="21.511185"
       x1="31.078955"
       id="linearGradient9902"
       xlink:href="#linearGradient9896"
       inkscape:collect="always"
       gradientTransform="matrix(0.7964847,0,0,0.7951099,-17.403389,-11.332155)" />
    <linearGradient
       inkscape:collect="always"
       xlink:href="#linearGradient6365"
       id="linearGradient6371"
       x1="40.25"
       y1="31.625"
       x2="40.25"
       y2="43.25"
       gradientUnits="userSpaceOnUse"
       gradientTransform="translate(-12.020815,0)" />
    <filter
       inkscape:collect="always"
       x="-0.14153846"
       width="1.2830769"
       y="-0.10415094"
       height="1.2083019"
       id="filter6421">
      <feGaussianBlur
         inkscape:collect="always"
         stdDeviation="2.07"
         id="feGaussianBlur6423" />
    </filter>
    <filter
       inkscape:collect="always"
       x="-0.066812895"
       width="1.1336257"
       y="-0.11952912"
       height="1.2390583"
       id="filter6451">
      <feGaussianBlur
         inkscape:collect="always"
         stdDeviation="0.76879489"
         id="feGaussianBlur6453" />
    </filter>
    <radialGradient
       inkscape:collect="always"
       xlink:href="#linearGradient8662"
       id="radialGradient6461"
       gradientUnits="userSpaceOnUse"
       gradientTransform="matrix(1,0,0,0.536723,0,16.87306)"
       cx="24.837126"
       cy="36.421127"
       fx="24.837126"
       fy="36.421127"
       r="15.644737" />
    <radialGradient
       inkscape:collect="always"
       xlink:href="#linearGradient8650"
       id="radialGradient6463"
       gradientUnits="userSpaceOnUse"
       gradientTransform="matrix(1.253442,0,0,0.9539,-15.47908,11.27663)"
       cx="19.701141"
       cy="2.8969381"
       fx="19.701141"
       fy="2.8969381"
       r="17.171415" />
    <linearGradient
       inkscape:collect="always"
       xlink:href="#linearGradient9888"
       id="linearGradient6465"
       gradientUnits="userSpaceOnUse"
       x1="8.7600641"
       y1="13.663074"
       x2="19.755548"
       y2="43.449947"
       gradientTransform="matrix(0.968718,0,0,0.9689198,0.3616813,0.7378237)" />
    <linearGradient
       inkscape:collect="always"
       xlink:href="#linearGradient6467"
       id="linearGradient6473"
       x1="18.729185"
       y1="44"
       x2="18.729185"
       y2="29.068014"
       gradientUnits="userSpaceOnUse"
       gradientTransform="matrix(0.4193549,0,0,0.4273376,0.1700198,-3.8028501)" />
  </defs>
  <sodipodi:namedview
     stroke="#a40000"
     fill="#727e0a"
     id="base"
     pagecolor="#ffffff"
     bordercolor="#666666"
     borderopacity="0.25490196"
     inkscape:pageopacity="0.0"
     inkscape:pageshadow="2"
     inkscape:zoom="1"
     inkscape:cx="-143.85577"
     inkscape:cy="11.281143"
     inkscape:current-layer="layer1"
     showgrid="true"
     inkscape:grid-bbox="true"
     inkscape:document-units="px"
     inkscape:showpageshadow="false"
     inkscape:window-width="872"
     inkscape:window-height="696"
     inkscape:window-x="562"
     inkscape:window-y="135"
     width="16px"
     height="16px" />
  <metadata
     id="metadata4">
    <rdf:RDF>
      <cc:Work
         rdf:about="">
        <dc:format>image/svg+xml</dc:format>
        <dc:type
           rdf:resource="http://purl.org/dc/dcmitype/StillImage" />
        <dc:creator>
          <cc:Agent>
            <dc:title>Jakub Steiner</dc:title>
          </cc:Agent>
        </dc:creator>
        <dc:source>http://jimmac.musichall.cz</dc:source>
        <cc:license
           rdf:resource="http://creativecommons.org/licenses/publicdomain/" />
        <dc:title>System Log Out</dc:title>
        <dc:subject>
          <rdf:Bag>
            <rdf:li>log out</rdf:li>
            <rdf:li>logout</rdf:li>
            <rdf:li>exit</rdf:li>
          </rdf:Bag>
        </dc:subject>
      </cc:Work>
      <cc:License
         rdf:about="http://creativecommons.org/licenses/publicdomain/">
        <cc:permits
           rdf:resource="http://creativecommons.org/ns#Reproduction" />
        <cc:permits
           rdf:resource="http://creativecommons.org/ns#Distribution" />
        <cc:permits
           rdf:resource="http://creativecommons.org/ns#DerivativeWorks" />
      </cc:License>
    </rdf:RDF>
  </metadata>
  <g
     id="layer1"
     inkscape:label="Layer 1"
     inkscape:groupmode="layer">
    <rect
       ry="0.70710486"
       rx="0.70710522"
       y="0.50000018"
       x="0.50000077"
       height="15"
       width="13.999999"
       id="rect9828"
       style="opacity:1;color:#000000;fill:#eeeeec;fill-opacity:1;fill-rule:evenodd;stroke:#555753;stroke-width:1.00000048;stroke-linecap:butt;stroke-linejoin:miter;marker:none;marker-start:none;marker-mid:none;marker-end:none;stroke-miterlimit:10;stroke-dasharray:none;stroke-dashoffset:0;stroke-opacity:1;visibility:visible;display:inline;overflow:visible"
       inkscape:r_cx="true"
       inkscape:r_cy="true" />
    <rect
       y="3.5648129"
       x="1.0000005"
       height="11.435187"
       width="12.999999"
       id="rect9840"
       style="opacity:1;color:#000000;fill:url(#linearGradient6473);fill-opacity:1;fill-rule:evenodd;stroke:none;stroke-width:1;stroke-linecap:butt;stroke-linejoin:miter;marker:none;marker-start:none;marker-mid:none;marker-end:none;stroke-miterlimit:10;stroke-dasharray:none;stroke-dashoffset:0;stroke-opacity:1;visibility:visible;display:inline;overflow:visible"
       inkscape:r_cx="true"
       inkscape:r_cy="true" />
    <path
       style="opacity:0.8857143;fill:#000000;fill-opacity:1;fill-rule:evenodd;stroke:none;stroke-width:1px;stroke-linecap:butt;stroke-linejoin:miter;stroke-opacity:1;filter:url(#filter6451)"
       d="M 2.1041847,43.875 L 23.479185,35 C 23.479185,35 26.992726,32.780416 23.729185,31.5 C 20.314184,30.16016 16.729185,32 16.729185,32 L 2.1041847,43.875 z "
       id="path6425"
       sodipodi:nodetypes="cczcc"
       transform="matrix(0.4015756,0,0,0.4316719,-1.0865965,-2.8992741)" />
    <path
       sodipodi:nodetypes="ccccc"
       id="path9852"
       d="M 1.0136012,15.509078 L 1.0000005,1.0000002 L 7.9845217,1.0156815 L 8,11.631973 L 1.0136012,15.509078 z "
       style="opacity:1;color:#000000;fill:url(#linearGradient9864);fill-opacity:1;fill-rule:evenodd;stroke:none;stroke-width:1;stroke-linecap:butt;stroke-linejoin:miter;marker:none;marker-start:none;marker-mid:none;marker-end:none;stroke-miterlimit:10;stroke-dasharray:none;stroke-dashoffset:0;stroke-opacity:1;visibility:visible;display:inline;overflow:visible" />
    <path
       style="opacity:0.42222224;color:#000000;fill:#ffffff;fill-opacity:1;fill-rule:nonzero;stroke:none;stroke-width:3;stroke-linecap:round;stroke-linejoin:round;marker:none;marker-start:none;marker-mid:none;marker-end:none;stroke-miterlimit:4;stroke-dasharray:none;stroke-dashoffset:0;stroke-opacity:1;visibility:visible;display:block;overflow:visible"
       d="M 1.0000005,15.509078 L 8,11.651824 L 1.5512105,14.816042 L 1.5512105,1.0000002 L 1.0055889,1.0000002 L 1.0000005,15.509078 z "
       id="path1360"
       inkscape:r_cx="true"
       inkscape:r_cy="true"
       sodipodi:nodetypes="cccccc" />
    <path
       style="opacity:1;color:#000000;fill:url(#radialGradient9876);fill-opacity:1;fill-rule:evenodd;stroke:none;stroke-width:1;stroke-linecap:butt;stroke-linejoin:miter;marker:none;marker-start:none;marker-mid:none;marker-end:none;stroke-miterlimit:10;stroke-dasharray:none;stroke-dashoffset:0;stroke-opacity:1;visibility:visible;display:inline;overflow:visible"
       d="M 1.0157307,15.425213 L 1.0000005,1.0000002 L 8,1.0000002 L 7.9370784,11.85415 L 1.0157307,15.425213 z "
       id="path9866"
       sodipodi:nodetypes="ccccc"
       inkscape:r_cx="true"
       inkscape:r_cy="true" />
    <path
       style="opacity:0.87428571;fill:url(#linearGradient6371);fill-opacity:1;fill-rule:evenodd;stroke:none;stroke-width:1px;stroke-linecap:butt;stroke-linejoin:miter;stroke-opacity:1;filter:url(#filter6421)"
       d="M 22.229185,3.5 L 21.729185,33.25 L 3.7291847,43 L 32.979185,43.25 L 32.729185,3.5 L 22.229185,3.5 z "
       id="path6355"
       transform="matrix(0.448057,0,0,0.3416666,-0.1486148,0.2229201)" />
    <g
       id="g6455"
       transform="matrix(-0.448057,0,0,0.4472837,16.306957,-2.2832534)">
      <path
         sodipodi:nodetypes="cccccccc"
         id="path8643"
         d="M 1.7317981,17.063686 L 1.7317981,30.421631 L 8.7089012,30.421631 L 8.7089012,35.286896 L 21.887745,23.952503 L 8.6361402,12.841769 L 8.6361402,17.066934 L 1.7317981,17.063686 z "
         style="opacity:1;color:#000000;fill:#cc0000;fill-opacity:1;fill-rule:evenodd;stroke:#a40000;stroke-width:2.2337873;stroke-linecap:round;stroke-linejoin:round;marker:none;marker-start:none;marker-mid:none;marker-end:none;stroke-miterlimit:10;stroke-dasharray:none;stroke-dashoffset:0;stroke-opacity:1;visibility:visible;display:inline;overflow:visible" />
      <path
         sodipodi:nodetypes="cccccc"
         id="path8645"
         d="M 9.4308326,14.327566 L 9.7267381,18.212089 L 3.0311141,18.310895 L 2.7352086,24.630246 C 12.993114,20.802669 11.264546,27.773987 20.603834,23.94641 L 9.4308326,14.327566 z "
         style="opacity:0.5080214;color:#000000;fill:url(#radialGradient6463);fill-opacity:1;fill-rule:evenodd;stroke:none;stroke-width:1;stroke-linecap:round;stroke-linejoin:round;marker:none;marker-start:none;marker-mid:none;marker-end:none;stroke-miterlimit:10;stroke-dasharray:none;stroke-dashoffset:0;stroke-opacity:1;visibility:visible;display:inline;overflow:visible" />
      <path
         style="opacity:0.48128339;color:#000000;fill:none;fill-opacity:1;fill-rule:evenodd;stroke:url(#linearGradient6465);stroke-width:2.23378754;stroke-linecap:butt;stroke-linejoin:miter;marker:none;marker-start:none;marker-mid:none;marker-end:none;stroke-miterlimit:10;stroke-dasharray:none;stroke-dashoffset:0;stroke-opacity:1;visibility:visible;display:inline;overflow:visible"
         d="M 4.0682237,19.290112 L 4.0682237,28.200361 L 10.781972,28.200361 L 10.781972,30.774055 L 18.875578,23.941908 L 10.522155,16.802255 L 10.522155,19.292905 L 4.0682237,19.290112 z "
         id="path8658"
         sodipodi:nodetypes="cccccccc" />
    </g>
  </g>
</svg>

<svg xmlns="http://www.w3.org/2000/svg" xmlns:xlink="http://www.w3.org/1999/xlink" width="16" height="16" version="1.0"><defs><linearGradient id="i"><stop offset="0" stop-color="#babdb6"/><stop offset="1" stop-color="#babdb6" stop-opacity="0"/></linearGradient><linearGradient id="e"><stop offset="0" stop-color="#fff"/><stop offset="1" stop-color="#fff" stop-opacity="0"/></linearGradient><linearGradient id="d"><stop offset="0" stop-color="#cecece"/><stop offset="1" stop-color="#9e9e9e"/></linearGradient><linearGradient id="h"><stop offset="0" stop-color="#fff"/><stop offset="1" stop-color="#fff" stop-opacity="0"/></linearGradient><linearGradient id="c"><stop offset="0" stop-color="#525252"/><stop offset="1" stop-color="#525252" stop-opacity="0"/></linearGradient><linearGradient id="b"><stop offset="0" stop-color="#4e4e4e"/><stop offset="1" stop-color="#616161" stop-opacity="0"/></linearGradient><linearGradient id="a"><stop offset="0" stop-color="#4e4e4e"/><stop offset="1" stop-color="#ababab"/></linearGradient><linearGradient id="f"><stop offset="0"/><stop offset="1" stop-opacity="0"/></linearGradient><linearGradient id="g"><stop offset="0" stop-color="#fff"/><stop offset="1" stop-color="#fff" stop-opacity="0"/></linearGradient><linearGradient gradientUnits="userSpaceOnUse" y2="27.759" x2="18.031" y1="19.804" x1="46.846" id="l" xlink:href="#a" gradientTransform="matrix(.35024 0 0 .35483 -3.903 -.084)"/><radialGradient gradientUnits="userSpaceOnUse" gradientTransform="matrix(.90069 0 0 .49732 -17.178 -3.443)" r="9.723" fy="7.14" fx="27.884" cy="7.14" cx="27.884" id="m" xlink:href="#b"/><linearGradient xlink:href="#e" id="n" x1="40.25" y1="31.625" x2="40.25" y2="43.25" gradientUnits="userSpaceOnUse" gradientTransform="translate(-12.02)"/><filter x="-.142" width="1.283" y="-.104" height="1.208" id="o"><feGaussianBlur stdDeviation="2.07"/></filter><filter x="-.067" width="1.134" y="-.12" height="1.239" id="k"><feGaussianBlur stdDeviation=".769"/></filter><radialGradient xlink:href="#g" id="p" gradientUnits="userSpaceOnUse" gradientTransform="matrix(1.25344 0 0 .9539 -15.48 11.277)" cx="19.701" cy="2.897" fx="19.701" fy="2.897" r="17.171"/><linearGradient xlink:href="#h" id="q" gradientUnits="userSpaceOnUse" x1="8.76" y1="13.663" x2="19.756" y2="43.45" gradientTransform="matrix(.96872 0 0 .96892 .362 .738)"/><linearGradient xlink:href="#i" id="j" x1="18.729" y1="44" x2="18.729" y2="29.068" gradientUnits="userSpaceOnUse" gradientTransform="matrix(.41935 0 0 .42734 .17 -3.803)"/></defs><rect ry=".707" rx=".707" y=".5" x=".5" height="15" width="14" style="marker:none" color="#000" fill="#eeeeec" fill-rule="evenodd" stroke="#555753" stroke-miterlimit="10" overflow="visible"/><path style="marker:none" color="#000" fill="url(#j)" fill-rule="evenodd" overflow="visible" d="M1 3.565h13V15H1z"/><path d="M2.104 43.875L23.48 35s3.514-2.22.25-3.5c-3.415-1.34-7 .5-7 .5L2.104 43.875z" transform="matrix(.40158 0 0 .43167 -1.087 -2.9)" opacity=".886" fill-rule="evenodd" filter="url(#k)"/><path d="M1.014 15.51L1 1l6.985.016L8 11.632l-6.986 3.877z" style="marker:none" color="#000" fill="url(#l)" fill-rule="evenodd" overflow="visible"/><path style="marker:none" d="M1 15.51l7-3.858-6.449 3.164V1h-.545L1 15.51z" opacity=".422" color="#000" fill="#fff" display="block" overflow="visible"/><path style="marker:none" d="M1.016 15.425L1 1h7l-.063 10.854-6.921 3.571z" color="#000" fill="url(#m)" fill-rule="evenodd" overflow="visible"/><path d="M22.23 3.5l-.5 29.75-18 9.75 29.25.25-.25-39.75h-10.5z" transform="matrix(.44806 0 0 .34167 -.149 .223)" opacity=".874" fill="url(#n)" fill-rule="evenodd" filter="url(#o)"/><g color="#000"><path d="M1.732 17.064v13.358h6.977v4.865l13.179-11.334L8.636 12.842v4.225l-6.904-.003z" style="marker:none" fill="#c00" fill-rule="evenodd" stroke="#a40000" stroke-width="2.234" stroke-linecap="round" stroke-linejoin="round" stroke-miterlimit="10" overflow="visible" transform="matrix(-.44806 0 0 .44728 16.307 -2.283)"/><path d="M9.43 14.328l.297 3.884-6.696.099-.296 6.32c10.258-3.828 8.53 3.143 17.869-.685L9.43 14.328z" style="marker:none" opacity=".508" fill="url(#p)" fill-rule="evenodd" overflow="visible" transform="matrix(-.44806 0 0 .44728 16.307 -2.283)"/><path style="marker:none" d="M4.068 19.29v8.91h6.714v2.574l8.094-6.832-8.354-7.14v2.49l-6.454-.002z" opacity=".481" fill="none" stroke="url(#q)" stroke-width="2.234" stroke-miterlimit="10" overflow="visible" transform="matrix(-.44806 0 0 .44728 16.307 -2.283)"/></g></svg>
